icon-themes/breeze_svg/cmd/32/strikeout.svg

<svg viewBox="0 0 32 32" xmlns="http://www.w3.org/2000/svg"><path d="m16.550781 4c-4.81698-.0449-10.275781 3.6618606-7.050781 11.150391h10.5c-18.76531-2.79273-2.43766-16.12554787.5-4.054688h1.5v-3.5449218c-.0226-2.28074-2.559029-3.5238712-5.449219-3.5507812zm-12.550781 12.164062v1.013672h24v-1.013672zm13 2.027344c8.51156 7.38282-2.22548 11.997774-7 2.027344h-1.5v5.068359c.28665 3.82526 19.97959 5.254437 14.5-7.095703z" fill="#4d4d4d"/></svg>

<svg xmlns="http://www.w3.org/2000/svg" viewBox="0 0 32 32">
 <path 
     style="fill:#4d4d4d" 
     d="M 16.550781 4 C 11.733801 3.9551 6.275 7.6618606 9.5 15.150391 L 20 15.150391 C 1.23469 12.357661 17.56234 -0.97515687 20.5 11.095703 L 22 11.095703 L 22 7.5507812 C 21.9774 5.2700412 19.440971 4.02691 16.550781 4 z M 4 16.164062 L 4 17.177734 L 28 17.177734 L 28 16.164062 L 4 16.164062 z M 17 18.191406 C 25.51156 25.574226 14.77452 30.18918 10 20.21875 L 8.5 20.21875 L 8.5 25.287109 C 8.78665 29.112369 28.47959 30.541546 23 18.191406 L 17 18.191406 z "
     />
</svg>
